X:1
T:Title
%%score { ( 1 3 ) | ( 2 4 ) }
L:1/8
M:4/4
K:Db
V:1 treble nm="Grand Piano"
V:3 treble 
V:2 bass 
V:4 bass 
V:1
 z4 z2[Q:1/4=100] D2 | F2 [EG]2 [FA]3 [FA] | [EG][FA][GB][Gc] [Fd]2 [FA]2 | B4 A2 F2 | %4
[M:3/4] [CE]6 |[M:1/4] [EG]2 |[M:4/4] [DF]2 [EG]2 [FA]3 [FA] | [EG][FA][GB][Gc] [Fd]2 [FA]2 | %8
 e4 d2 c2 |[M:3/4] [Fd]6 |[M:1/4] [A,FA]2 |[M:4/4] [Ec]2 [Gc]2 [Fd]2 [FA]2 | ccBc [Fd]2 [FA]2 | %13
 B2 BB c2 d2 | [=Ge][GB][Gc][Gd] [Ad]2 [Ac]2 | [FA]2 [GB][Gc] [Fd]3 [DF] | %16
 [EG][FA][Ac][CGB] [DFA]2 F2 | e4 z4 |[M:3/4] [Fd]6 |] %19
V:2
 z4 z2 [D,F,]2 | [D,A,D]2 [D,A,]2 [D,D]3 [D,D] | [A,C][A,C][A,,A,][A,,A,] [D,A,]2 [D,D]2 | %3
 [G,DG]4 [F,D]2 [D,A,D]2 |[M:3/4] [A,,A,]6 |[M:1/4] [A,,A,]2 | %6
[M:4/4] [D,A,]2 [D,A,]2 [D,D]3 [D,D] | [A,C][A,C][A,,A,][A,,A,] [D,A,]2 [D,D]2 | %8
 [G,B,G]4 [A,F]2[K:bass] [A,E]2 |[M:3/4] [D,A,]6 |[M:1/4] D,F, |[M:4/4] A,2 A,2 [D,A,]2 [D,A,]2 | %12
 [A,E][A,E][A,G][A,G][K:bass] [D,A,]2 [D,D]2 | [G,DG]2 [G,B,D][G,B,D][K:treble] [F,=A,F]2 [B,F]2 | %14
 [E,B,][E,E][E,E][E,E] [A,E]2 [A,E]2 | [D,D]2 [D,C][D,B,] [D,A,]3 [D,A,] | %16
 [A,,A,][A,,A,][A,,A,]A,, D,2 [D,A,D]2 | D2 z2[K:treble] [A,F]2 [A,E]2 |[M:3/4][K:bass] [D,A,]6 |] %19
V:3
 x8 | x8 | x8 | x8 |[M:3/4] x6 |[M:1/4] x2 |[M:4/4] x8 | x8 | x8 |[M:3/4] x6 |[M:1/4] x2 | %11
[M:4/4] x8 | x8 | x8 | x8 | x8 | x8 | z2 G2 d2 c2 |[M:3/4] x6 |] %19
V:4
 x8 | x8 | x8 | x8 |[M:3/4] x6 |[M:1/4] x2 |[M:4/4] x8 | x8 | x6[K:bass] x2 |[M:3/4] x6 | %10
[M:1/4] x2 |[M:4/4] x8 | x4[K:bass] x4 | x4[K:treble] x4 | x8 | x8 | x8 | [G,B,]4[K:treble] z4 | %18
[M:3/4][K:bass] x6 |] %19

